X: 96
M: 4/4
L: 1/8
K: G
(Bc) | d2 B2 c2 d2 | e3 d c2 (AB) | c2 c2 B2 d2 | A6 z2 |
(d3 B) A4 | (B3 A) (GA) (Bc) | d2 GA B2 A2 | G4 z2 |]


